X:20
T:Savoyards Frolic. THO5.020, The
M:6/8
L:1/8
B:Thompson's Complete Collection of 200 Favourite Dances Vol.5
F:https://www.libraryofdance.org/manuals/1780c-Thompson-Compleat-5.pdf
Z:vmp. Peter Dunk 2024
Q:3/8=100
K:D
f/e/|d2A AFA|AFA Afe|d2A AGF|EFE Efe|
d2A AFA|AFA AGF|GAB AGF|1EFE E2:|2EFE GFE||
|:D>EF FEF|DEF GFE|DEF FEF|EFE GFE|
DEF FEF|FEF FEF|GAB AGF|1EFE GFE:|2EFE E2|]
W:
W:Turn Right hands and cast off one Couple ./.
W:Turn Left and cast off below the 3rd Couple ./:
W:Hands round six :/.
W:Lead up to the top, foot it and cast off :/:

